icons/Waxing Gibbous Moon--1504978.svg

<svg enable-background="new 0 0 16 16" viewBox="0 0 16 16" xmlns="http://www.w3.org/2000/svg"><path d="m8 15c-1.575 0-3.065-.514-4.308-1.486-.122-.095-.192-.241-.192-.395s.072-.3.193-.394c1.466-1.137 2.307-2.86 2.307-4.725s-.841-3.587-2.307-4.725c-.121-.095-.193-.24-.193-.394s.071-.3.192-.395c1.244-.972 2.733-1.486 4.308-1.486 3.859 0 7 3.14 7 7 0 3.859-3.141 7-7 7zm-3.187-1.918c.955.603 2.044.918 3.187.918 3.309 0 6-2.691 6-6s-2.691-6-6-6c-1.142 0-2.232.315-3.187.918 1.397 1.313 2.187 3.131 2.187 5.082 0 1.952-.79 3.77-2.187 5.082z"/><path d="m10 8c-1.103 0-2-.897-2-2s.897-2 2-2 2 .897 2 2-.897 2-2 2zm0-3c-.552 0-1 .449-1 1s.448 1 1 1 1-.449 1-1-.448-1-1-1z"/><path d="m6.5 12c-.47 0-.919-.225-1.2-.601-.166-.222-.12-.535.101-.7.221-.166.534-.119.7.101.095.127.24.2.399.2.276 0 .5-.225.5-.5 0-.309-.284-.529-.6-.487-.274.05-.529-.141-.574-.413-.044-.273.141-.53.414-.574.905-.156 1.76.56 1.76 1.474 0 .827-.673 1.5-1.5 1.5z"/></svg>

<?xml version="1.0" encoding="utf-8"?>
<!DOCTYPE svg PUBLIC "-//W3C//DTD SVG 1.0//EN" "http://www.w3.org/TR/2001/REC-SVG-20010904/DTD/svg10.dtd">
<svg    fill="#000000" xmlns="http://www.w3.org/2000/svg" xmlns:xlink="http://www.w3.org/1999/xlink" version="1.1" x="0px" y="0px" viewBox="0 0 16 16" style="enable-background:new 0 0 16 16;" xml:space="preserve"><g><path d="M8,15c-1.575,0-3.065-0.514-4.308-1.486C3.57,13.419,3.5,13.273,3.5,13.119s0.072-0.3,0.193-0.394   C5.159,11.588,6,9.865,6,8c0-1.865-0.841-3.587-2.307-4.725C3.572,3.18,3.5,3.035,3.5,2.881c0-0.154,0.071-0.3,0.192-0.395   C4.936,1.514,6.425,1,8,1c3.859,0,7,3.14,7,7C15,11.859,11.859,15,8,15z M4.813,13.082C5.768,13.685,6.857,14,8,14   c3.309,0,6-2.691,6-6s-2.691-6-6-6C6.858,2,5.768,2.315,4.813,2.918C6.21,4.231,7,6.049,7,8C7,9.952,6.21,11.77,4.813,13.082z"></path><path d="M10,8C8.897,8,8,7.103,8,6s0.897-2,2-2s2,0.897,2,2S11.103,8,10,8z M10,5C9.448,5,9,5.449,9,6s0.448,1,1,1s1-0.449,1-1   S10.552,5,10,5z"></path><path d="M6.5,12c-0.47,0-0.919-0.225-1.2-0.601c-0.166-0.222-0.12-0.535,0.101-0.7c0.221-0.166,0.534-0.119,0.7,0.101   C6.196,10.927,6.341,11,6.5,11C6.776,11,7,10.775,7,10.5c0-0.309-0.284-0.529-0.6-0.487C6.126,10.063,5.871,9.872,5.826,9.6   C5.782,9.327,5.967,9.07,6.24,9.026C7.145,8.87,8,9.586,8,10.5C8,11.327,7.327,12,6.5,12z"></path></g></svg>
